X: 251
T:Tu solus qui facis mirabilia / D'ung aultre amer
N: Derived from Jos2205-Tu_solus_qui_facis_mirabilia.krn
C: Josquin des Prez
%%abc-version 2.0
%%abcx-abcm2ps-target-version 5.9.1 (29 Sep 2008)
%%abc-creator hum2abc beta
%%abcx-conversion-date 2019/02/12 16:15:51
%%abc-edited-by Jesse Rodin
%%abc-edited-by Joel Chapman 2011/5/20; Victoria Chang 2011/08/08
%%abcx-initial-encoding-date 2011/05/20/
%%humdrum-veritas 655647714
%%humdrum-veritas-data 2024665952
%%linebreak <none>
%%barnumbers 0
L: 1/4
M: 2/1
Q: 1/2=120
%%staves [1 2 3 4]
V: 1 clef=treble
V: 2 clef=treble-8
V: 3 clef=treble-8
V: 4 clef=bass
K: F
[V:1] G8 | 
[V:2] d8 | 
[V:3] G8 | 
[V:4] G,,8 | 
[V:1] G8 | 
[V:2] d8 | 
[V:3] B8 | 
[V:4] G,8 | 
[V:1] !fermata!A8 | 
[V:2] !fermata!f8 | 
[V:3] !fermata!c8 | 
[V:4] !fermata!F,8 | 
[V:1] G8 | 
[V:2] e8 | 
[V:3] c8 | 
[V:4] C,8 | 
[V:1] G4G4 | 
[V:2] e4e4 | 
[V:3] c4c4 | 
[V:4] C,4C,4 | 
[V:1] A6G2 | 
[V:2] f4c4 | 
[V:3] A4F4- | 
[V:4] F,6E,2 | 
[V:1] F4E4 | 
[V:2] d2B2c4 | 
[V:3] F2F2G3A | 
[V:4] D,4C,4 | 
[V:1] !fermata!D8 | 
[V:2] !fermata!F8 | 
[V:3] !fermata!B8 | 
[V:4] !fermata!B,,8 | 
[V:1] B8 | 
[V:2] G8 | 
[V:3] d8 | 
[V:4] G,,8 | 
[V:1] B8 | 
[V:2] d8 | 
[V:3] B8 | 
[V:4] G,8 | 
[V:1] A8 | 
[V:2] f8 | 
[V:3] c8 | 
[V:4] F,8 | 
[V:1] G8 | 
[V:2] _e8 | 
[V:3] c8 | 
[V:4] C,8 | 
[V:1] G8 | 
[V:2] _e8 | 
[V:3] G8 | 
[V:4] _E,8 | 
[V:1] !fermata!F8 | 
[V:2] !fermata!d8 | 
[V:3] !fermata!B8 | 
[V:4] !fermata!B,,8 | 
[V:1] A8 | 
[V:2] f8 | 
[V:3] c8 | 
[V:4] F,8 | 
[V:1] A4B4- | 
[V:2] f4d4- | 
[V:3] c4B4- | 
[V:4] F,4G,4- | 
[V:1] B4G4 | 
[V:2] d4e4 | 
[V:3] B4c4 | 
[V:4] G,4C,4 | 
[V:1] !fermata!G8 | 
[V:2] !fermata!e8 | 
[V:3] !fermata!c8 | 
[V:4] !fermata!C,8 | 
[V:1] F8 | 
[V:2] d8 | 
[V:3] A8 | 
[V:4] D,8 | 
[V:1] G4G4 | 
[V:2] B4B4 | 
[V:3] G4G4 | 
[V:4] _E,4E,4 | 
[V:1] F8 | 
[V:2] B8 | 
[V:3] d8 | 
[V:4] B,,8 | 
[V:1] E8 | 
[V:2] G8 | 
[V:3] c8 | 
[V:4] C,8 | 
[V:1] !fermata!D8 | 
[V:2] !fermata!G8 | 
[V:3] !fermata!B8 | 
[V:4] !fermata!G,,8 | 
[V:1] F8 | 
[V:2] A8 | 
[V:3] d8 | 
[V:4] D,8 | 
[V:1] G4F4 | 
[V:2] c4d4 | 
[V:3] G4A4 | 
[V:4] E,4D,4 | 
[V:1] G8- | 
[V:2] d6c2 | 
[V:3] B8- | 
[V:4] G,8- | 
[V:1] G4A4 | 
[V:2] d4f3e | 
[V:3] B4c4 | 
[V:4] G,4F,4 | 
[V:1] !fermata!A8 | 
[V:2] !fermata!f8 | 
[V:3] !fermata!c8 | 
[V:4] !fermata!F,8 | 
[V:1] B8 | 
[V:2] f8 | 
[V:3] d8 | 
[V:4] B,,8 | 
[V:1] A4G4 | 
[V:2] f4e4 | 
[V:3] c4B4 | 
[V:4] F,4G,4 | 
[V:1] A6F2 | 
[V:2] f8 | 
[V:3] c8 | 
[V:4] F,8 | 
[V:1] !fermata!F8 | 
[V:2] !fermata!d8 | 
[V:3] !fermata!B8 | 
[V:4] !fermata!B,,8 | 
[V:1] B8 | 
[V:2] f8 | 
[V:3] d8 | 
[V:4] B,,8 | 
[V:1] A4G4 | 
[V:2] f4e4 | 
[V:3] c4B4 | 
[V:4] F,4G,4 | 
[V:1] ^F8- | 
[V:2] d8- | 
[V:3] A8- | 
[V:4] D,8- | 
[V:1] F4G4 | 
[V:2] d4B4 | 
[V:3] A4G4 | 
[V:4] D,4G,,4 | 
[V:1] !fermata!G8 | 
[V:2] !fermata!d8 | 
[V:3] !fermata!G8 | 
[V:4] !fermata!G,,8 | 
[V:1] z8 | 
[V:2] z8 | 
[V:3] B4B2B2 | 
[V:4] G,4D,2E,2 | 
[V:1] z8 | 
[V:2] z8 | 
[V:3] A6A2 | 
[V:4] F,3E,D,2C,2 | 
[V:1] z8 | 
[V:2] z8 | 
[V:3] B3AG2^F2 | 
[V:4] B,,3C,B,,2A,,2 | 
[V:1] z8 | 
[V:2] z8 | 
[V:3] G8 | 
[V:4] G,,8 | 
[V:1] B4B2B2 | 
[V:2] g4d2e2 | 
[V:3] z8 | 
[V:4] z8 | 
[V:1] A6A2 | 
[V:2] f3ed2c2 | 
[V:3] z8 | 
[V:4] z8 | 
[V:1] B3AG2^F2 | 
[V:2] B3cB2A2 | 
[V:3] z8 | 
[V:4] z8 | 
[V:1] G4z2B2 | 
[V:2] G4z2g2 | 
[V:3] z4z2d2 | 
[V:4] z4z2G,2 | 
[V:1] B2B2B2B2 | 
[V:2] g2g2g2g2 | 
[V:3] d2d2d2d2 | 
[V:4] G,2G,2G,2G,2 | 
[V:1] A4G4 | 
[V:2] fedcB2c2 | 
[V:3] d4G4 | 
[V:4] D,4E,4 | 
[V:1] F4z4 | 
[V:2] d4z4 | 
[V:3] A4z4 | 
[V:4] D,4z4 | 
[V:1] G8 | 
[V:2] d8 | 
[V:3] G8 | 
[V:4] G,8 | 
[V:1] D8 | 
[V:2] g8 | 
[V:3] B8 | 
[V:4] G,8 | 
[V:1] E8 | 
[V:2] g8 | 
[V:3] c8 | 
[V:4] C,8 | 
[V:1] !fermata!D8 | 
[V:2] !fermata!f8 | 
[V:3] !fermata!A8 | 
[V:4] !fermata!D,8 | 
[V:1] [M:3/1]z12 | 
[V:2] [M:3/1]z12 | 
[V:3] [M:3/1]B4B4B4 | 
[V:4] [M:3/1]D,4D,4D,4 | 
[V:1] z12 | 
[V:2] z12 | 
[V:3] c6B2A4 | 
[V:4] _E,6D,2C,4 | 
[V:1] z12 | 
[V:2] z12 | 
[V:3] G4G4^F4 | 
[V:4] B,,4G,,4A,,4 | 
[V:1] z12 | 
[V:2] z12 | 
[V:3] G8z4 | 
[V:4] G,,12 | 
[V:1] B4B4B4 | 
[V:2] f4f4f4 | 
[V:3] d4d4d4 | 
[V:4] z12 | 
[V:1] c6B2A4 | 
[V:2] g6f2e4 | 
[V:3] _e6d2c4 | 
[V:4] z12 | 
[V:1] G4G4^F4 | 
[V:2] d4d4c4 | 
[V:3] B4G4A4 | 
[V:4] z12 | 
[V:1] G8B4 | 
[V:2] d8B4 | 
[V:3] G8d4 | 
[V:4] z4z4G,4 | 
[V:1] A4B4G4 | 
[V:2] f4d4e4 | 
[V:3] d4B4c4 | 
[V:4] F,4G,4E,4 | 
[V:1] F8G4 | 
[V:2] f4d4e4 | 
[V:3] d4f4e4 | 
[V:4] D,8C,4 | 
[V:1] A4B4G4 | 
[V:2] f4d4e4 | 
[V:3] d4B4c4 | 
[V:4] F,4G,4E,4 | 
[V:1] !fermata!A8z4 | 
[V:2] !fermata![A8f8]z4 | 
[V:3] !fermata!d8z4 | 
[V:4] !fermata!D,8z4 | 
[V:1] !fermata!G12 | 
[V:2] !fermata!d12 | 
[V:3] !fermata!B12 | 
[V:4] !fermata!G,12 | 
[V:1] !fermata!G12 | 
[V:2] !fermata!_e12 | 
[V:3] !fermata!c12 | 
[V:4] !fermata!C,12 | 
[V:1] !fermata!^F12 | 
[V:2] !fermata!d12 | 
[V:3] !fermata!A12 | 
[V:4] !fermata!D,12 | 
[V:1] G12 ||  
[V:2] B12 ||  
[V:3] G12 ||  
[V:4] G,,12 ||  
[V:1] [M:2/1]G8 | 
[V:2] [M:2/1]z8 | 
[V:3] [M:2/1]z8 | 
[V:4] [M:2/1]G,8 | 
[V:1] A4G4 | 
[V:2] z8 | 
[V:3] z8 | 
[V:4] F,4G,4 | 
[V:1] d6cB | 
[V:2] z8 | 
[V:3] z4B4 | 
[V:4] B,6A,G, | 
[V:1] A4z4 | 
[V:2] z2f2g2a2 | 
[V:3] c4c4 | 
[V:4] F,2E,D,C,4 | 
[V:1] z8 | 
[V:2] b6a2 | 
[V:3] d6c2 | 
[V:4] B,,4z4 | 
[V:1] z8 | 
[V:2] g4^f4 | 
[V:3] B4A4 | 
[V:4] z8 | 
[V:1] z8 | 
[V:2] g8 | 
[V:3] G8 | 
[V:4] z8 | 
[V:1] G8 | 
[V:2] z8 | 
[V:3] z8 | 
[V:4] G,8 | 
[V:1] A4G4 | 
[V:2] z8 | 
[V:3] z8 | 
[V:4] F,4G,4 | 
[V:1] d6cB | 
[V:2] z8 | 
[V:3] z4B4 | 
[V:4] B,6A,G, | 
[V:1] A4z4 | 
[V:2] z2f2g2a2 | 
[V:3] c4c4 | 
[V:4] F,2E,D,C,4 | 
[V:1] z8 | 
[V:2] b6a2 | 
[V:3] d6c2 | 
[V:4] B,,4G,,4 | 
[V:1] z8 | 
[V:2] g4^f4 | 
[V:3] B4A4 | 
[V:4] z8 | 
[V:1] z4d4- | 
[V:2] g8 | 
[V:3] G8 | 
[V:4] z4B,4- | 
[V:1] d4c4 | 
[V:2] G4A4 | 
[V:3] B4c4 | 
[V:4] B,4A,4 | 
[V:1] B6AG | 
[V:2] B8 | 
[V:3] d8 | 
[V:4] G,8 | 
[V:1] !fermata!F8 | 
[V:2] !fermata!A8 | 
[V:3] !fermata!d8 | 
[V:4] !fermata!D,8 | 
[V:1] [M:3/1]G4G4G4 | 
[V:2] [M:3/1]d4d4d4 | 
[V:3] [M:3/1]B4B4B4 | 
[V:4] [M:3/1]z12 | 
[V:1] G8G4 | 
[V:2] d8d4 | 
[V:3] B8B4 | 
[V:4] z12 | 
[V:1] G8A4 | 
[V:2] d8e4 | 
[V:3] B8c4 | 
[V:4] z12 | 
[V:1] F8z4 | 
[V:2] c8z4 | 
[V:3] A8z4 | 
[V:4] z12 | 
[V:1] B4B4B4 | 
[V:2] B4B4B4 | 
[V:3] d4d4d4 | 
[V:4] G,4G,4G,4 | 
[V:1] B8A4 | 
[V:2] d6e2f4 | 
[V:3] B8c4 | 
[V:4] G,8F,4 | 
[V:1] A4G4^F4 | 
[V:2] f4c4d4 | 
[V:3] d4G4A4 | 
[V:4] D,4E,4D,4 | 
[V:1] G8z4 | 
[V:2] B8z4 | 
[V:3] G8z4 | 
[V:4] G,,8z4 | 
[V:1] !fermata!F12 | 
[V:2] !fermata!d12 | 
[V:3] !fermata!A12 | 
[V:4] !fermata!D,12 | 
[V:1] !fermata!G12 | 
[V:2] !fermata!B12 | 
[V:3] !fermata!G12 | 
[V:4] !fermata!_E,12 | 
[V:1] !fermata!A12 | 
[V:2] !fermata!f12 | 
[V:3] !fermata!c12 | 
[V:4] !fermata!F,12 | 
[V:1] !fermata!G12 | 
[V:2] !fermata!e12 | 
[V:3] !fermata!c12 | 
[V:4] !fermata!C,12 | 
[V:1] B4B4B4 | 
[V:2] f4f4f4 | 
[V:3] d4d4B4 | 
[V:4] B,,4B,,4B,,4 | 
[V:1] A8B4 | 
[V:2] f8f4 | 
[V:3] c8d4 | 
[V:4] F,8B,,4 | 
[V:1] A4F4G4 | 
[V:2] f8e4 | 
[V:3] c4d4B4 | 
[V:4] F,4D,4E,4 | 
[V:1] A8z4 | 
[V:2] c4d4z4 | 
[V:3] A8d4 | 
[V:4] F,4D,4z4 | 
[V:1] A4A4c4 | 
[V:2] A4A4A4 | 
[V:3] c8A4 | 
[V:4] F,4F,4F,4 | 
[V:1] B8A4 | 
[V:2] f8f4 | 
[V:3] B8c4 | 
[V:4] B,,8F,4 | 
[V:1] G4E4F4 | 
[V:2] d4e4d4 | 
[V:3] B4c4A4 | 
[V:4] G,4C,4D,4 | 
[V:1] G8z4 | 
[V:2] B4c4z4 | 
[V:3] G8z4 | 
[V:4] _E,4C,4z4 | 
[V:1] !fermata!A12 | 
[V:2] !fermata!f12 | 
[V:3] !fermata!F12 | 
[V:4] !fermata!D,12 | 
[V:1] !fermata!G12 | 
[V:2] !fermata!d12 | 
[V:3] !fermata!B12 | 
[V:4] !fermata!G,12 | 
[V:1] !fermata!^F12 | 
[V:2] !fermata!d12 | 
[V:3] !fermata!A12 | 
[V:4] !fermata!D,12 | 
[V:1] G12- | 
[V:2] !fermata!B12 | 
[V:3] G12- | 
[V:4] G,,12- | 
[V:1] G12 |]  
[V:2] d12 |]  
[V:3] G12 |]  
[V:4] G,,12 |]  



